resources/vectors/sber_bank.svg

<svg xmlns="http://www.w3.org/2000/svg" viewBox="0 0 153 153"><rect width="153" height="153" fill="#fff" rx="10"/><path fill="#98dc9a" d="M108.3 108.89a44 44 0 0 0 12.48-39.34l-9.69 7v.95a33.85 33.85 0 0 1-10.72 24.65 34.72 34.72 0 0 1-23.87 9.5h-.06a34.7 34.7 0 0 1-25.09-10.76 33.69 33.69 0 0 1 1.43-48.19 34.65 34.65 0 0 1 23.72-9.36 34.69 34.69 0 0 1 19.51 5.95l8.76-6.36a45.12 45.12 0 0 0-26-9.76h-2.24A45.14 45.14 0 0 0 46.34 44.6c-.26.23-.48.49-.73.73s-.62.52-.9.81a43.88 43.88 0 0 0-13.1 29.14h-.06c-.05.74-.05 1.47-.05 2.22a43.92 43.92 0 0 0 11.67 29.77c.22.24.47.45.7.69s.55.62.84.91a45 45 0 0 0 29.54 12.93v.07h2.25a45.09 45.09 0 0 0 30.15-11.51l1-.89c.15-.14.28-.3.43-.44l.24-.22Z"/><path fill="#98dc9a" d="M59.65 65.64v12.91l17.12 10.73 41-30.2a44.37 44.37 0 0 0-5.39-8.94l-35.61 26.2Z"/></svg>

<?xml version="1.0" encoding="UTF-8" standalone="no"?>
<svg
   viewBox="0 0 192 192"
   version="1.1"
   id="svg8"
   sodipodi:docname="sber_bank.svg"
   width="192"
   height="192"
   inkscape:version="1.2.2 (b0a8486541, 2022-12-01)"
   inkscape:export-filename="sber_bank.png"
   inkscape:export-xdpi="96"
   inkscape:export-ydpi="96"
   xmlns:inkscape="http://www.inkscape.org/namespaces/inkscape"
   xmlns:sodipodi="http://sodipodi.sourceforge.net/DTD/sodipodi-0.dtd"
   xmlns="http://www.w3.org/2000/svg"
   xmlns:svg="http://www.w3.org/2000/svg">
  <defs
     id="defs12" />
  <sodipodi:namedview
     id="namedview10"
     pagecolor="#505050"
     bordercolor="#eeeeee"
     borderopacity="1"
     inkscape:showpageshadow="0"
     inkscape:pageopacity="0"
     inkscape:pagecheckerboard="0"
     inkscape:deskcolor="#d1d1d1"
     showgrid="false"
     inkscape:zoom="3.0849673"
     inkscape:cx="59.319915"
     inkscape:cy="86.0625"
     inkscape:window-width="1884"
     inkscape:window-height="1055"
     inkscape:window-x="36"
     inkscape:window-y="0"
     inkscape:window-maximized="1"
     inkscape:current-layer="svg8" />
  <rect
     width="152"
     height="152"
     fill="#ffffff"
     rx="10"
     id="rect2"
     x="20"
     y="20"
     style="stroke-width:0.993464" />
  <g
     id="g349"
     transform="matrix(0.81112448,0,0,0.81112448,33.949579,33.121743)"
     style="fill:#98dc9a">
    <path
       fill="#98dc9a"
       d="m 108.3,108.89 a 44,44 0 0 0 12.48,-39.34 l -9.69,7 v 0.95 a 33.85,33.85 0 0 1 -10.72,24.65 34.72,34.72 0 0 1 -23.87,9.5 H 76.44 A 34.7,34.7 0 0 1 51.35,100.89 33.69,33.69 0 0 1 52.78,52.7 34.65,34.65 0 0 1 76.5,43.34 34.69,34.69 0 0 1 96.01,49.29 l 8.76,-6.36 a 45.12,45.12 0 0 0 -26,-9.76 H 76.53 A 45.14,45.14 0 0 0 46.34,44.6 c -0.26,0.23 -0.48,0.49 -0.73,0.73 -0.25,0.24 -0.62,0.52 -0.9,0.81 A 43.88,43.88 0 0 0 31.61,75.28 H 31.55 C 31.5,76.02 31.5,76.75 31.5,77.5 a 43.92,43.92 0 0 0 11.67,29.77 c 0.22,0.24 0.47,0.45 0.7,0.69 0.23,0.24 0.55,0.62 0.84,0.91 a 45,45 0 0 0 29.54,12.93 v 0.07 h 2.25 a 45.09,45.09 0 0 0 30.15,-11.51 l 1,-0.89 c 0.15,-0.14 0.28,-0.3 0.43,-0.44 l 0.24,-0.22 z"
       id="path4"
       style="fill:#98dc9a" />
    <path
       fill="#98dc9a"
       d="m 59.65,65.64 v 12.91 l 17.12,10.73 41,-30.2 a 44.37,44.37 0 0 0 -5.39,-8.94 l -35.61,26.2 z"
       id="path6"
       style="fill:#98dc9a" />
  </g>
</svg>
